packages/icons/src/svg/tdp-positive.svg

<svg xmlns="http://www.w3.org/2000/svg" viewBox="0 0 16 16">
    <polygon points="6.4 9.803 5.885 10.78 10.082 10.78 9.534 9.803"/>
    <path d="M13.5294,11.6132 C12.4404,13.2212 10.7174,14.3342 8.7384,14.5582 C8.6364,14.8722 8.3444,15.0992 7.9964,15.0992 C7.6494,15.0992 7.3574,14.8722 7.2544,14.5582 C4.3004,14.2222 1.8984,11.9102 1.4684,8.9482 C1.4614,8.8972 1.4414,8.7402 1.4324,8.6532 C1.4324,8.6482 1.4314,8.6422 1.4314,8.6372 L1.4314,8.6362 L1.4304,8.6362 C1.4304,8.6322 1.4304,8.6282 1.4294,8.6232 C1.4124,8.4242 1.3974,8.2082 1.3994,8.1402 C1.4004,8.1342 1.4004,8.1272 1.4004,8.1202 C1.4024,8.0802 1.4354,8.0472 1.4764,8.0472 L3.8054,8.0472 L3.8054,8.0482 L3.8064,8.0482 C3.9604,8.0482 4.0844,8.1732 4.0844,8.3262 C4.0844,8.4802 3.9604,8.6052 3.8064,8.6052 L3.8054,8.6052 L1.9844,8.6052 C2.2684,11.4272 4.5074,13.6682 7.2774,14.0032 C7.3984,13.7252 7.6744,13.5312 7.9964,13.5312 C8.3194,13.5312 8.5954,13.7252 8.7164,14.0042 C10.5314,13.7902 12.1214,12.7722 13.0834,11.2722 C13.1404,11.1782 13.2424,10.9582 13.4414,10.9582 C13.5924,10.9582 13.7224,11.0822 13.7164,11.2332 C13.7104,11.3732 13.5724,11.5512 13.5294,11.6132 L13.5294,11.6132 Z M9.4154,5.5742 C9.4154,5.3152 9.6254,5.1062 9.8834,5.1062 C10.1424,5.1062 10.3524,5.3152 10.3524,5.5742 C10.3524,5.8332 10.1424,6.0432 9.8834,6.0432 C9.6254,6.0432 9.4154,5.8332 9.4154,5.5742 L9.4154,5.5742 Z M7.5394,4.5442 C7.5394,4.1572 7.8534,3.8432 8.2394,3.8432 C8.6254,3.8432 8.9384,4.1572 8.9384,4.5442 C8.9384,4.9292 8.6254,5.2432 8.2394,5.2432 C7.8534,5.2432 7.5394,4.9292 7.5394,4.5442 L7.5394,4.5442 Z M5.6554,5.0982 C5.6554,4.8412 5.8644,4.6312 6.1234,4.6312 C6.3824,4.6312 6.5924,4.8412 6.5924,5.0982 C6.5924,5.3572 6.3824,5.5672 6.1234,5.5672 C5.8644,5.5672 5.6554,5.3572 5.6554,5.0982 L5.6554,5.0982 Z M6.8634,7.8032 C6.9024,7.7352 6.9654,7.6852 7.0374,7.6622 L7.0374,6.9162 L6.9774,6.9162 C6.7404,6.9162 6.5504,6.7242 6.5504,6.4882 C6.5504,6.2532 6.7404,6.0612 6.9774,6.0612 L8.9904,6.0612 C9.2264,6.0612 9.4174,6.2532 9.4174,6.4882 C9.4174,6.7242 9.2264,6.9162 8.9904,6.9162 L8.9294,6.9162 L8.9294,7.6622 C9.0024,7.6852 9.0654,7.7342 9.1044,7.8032 L11.0564,11.2812 C11.1094,11.3762 11.1084,11.4912 11.0534,11.5852 C10.9994,11.6782 10.8984,11.7362 10.7904,11.7362 L5.1764,11.7362 C5.0684,11.7362 4.9684,11.6782 4.9134,11.5852 C4.8594,11.4912 4.8584,11.3762 4.9104,11.2812 L6.8634,7.8032 Z M1.8604,5.5722 C2.7554,3.3562 4.8154,1.7422 7.2494,1.4662 C7.3454,1.1412 7.6424,0.9022 7.9984,0.9022 C8.3544,0.9022 8.6524,1.1412 8.7474,1.4672 C11.1584,1.7402 13.2154,3.3082 14.1194,5.5462 C14.1194,5.5462 14.1564,5.6372 14.1564,5.6912 C14.1564,5.8442 14.0314,5.9682 13.8784,5.9682 C13.7414,5.9682 13.6464,5.8662 13.5994,5.7402 C12.7714,3.7062 10.8984,2.2812 8.7034,2.0252 C8.5774,2.2882 8.3104,2.4712 7.9984,2.4712 C7.6854,2.4712 7.4164,2.2862 7.2904,2.0202 C5.0674,2.2812 3.1814,3.7672 2.3664,5.7992 C2.3654,5.8012 2.3634,5.8042 2.3624,5.8072 L2.3624,5.8092 C2.3184,5.9052 2.2214,5.9722 2.1094,5.9722 C1.9554,5.9722 1.8314,5.8482 1.8314,5.6952 C1.8314,5.6512 1.8434,5.6102 1.8614,5.5732 L1.8604,5.5722 Z M11.9434,8.6052 L11.9414,8.6062 C11.7874,8.6062 11.6624,8.4812 11.6624,8.3272 C11.6624,8.1742 11.7874,8.0492 11.9414,8.0492 L11.9434,8.0492 L13.3064,8.0492 L13.3064,7.3152 L14.5204,8.3302 L13.3064,9.3452 L13.3064,8.6052 L11.9434,8.6052 Z M8.0004,0.0002 C3.5814,0.0002 0.0004,3.5822 0.0004,8.0002 C0.0004,12.4182 3.5814,16.0002 8.0004,16.0002 C12.4184,16.0002 16.0004,12.4182 16.0004,8.0002 C16.0004,3.5822 12.4184,0.0002 8.0004,0.0002 L8.0004,0.0002 Z"/>
</svg>

<svg xmlns="http://www.w3.org/2000/svg" viewBox="0 0 16 16">
	<path d="M6.4 9.803l-.515.977h4.197l-.548-.977z"/>
	<path d="M13.53 11.613c-1.09 1.608-2.813 2.721-4.792 2.945a.78.78 0 0 1-1.484 0 6.627 6.627 0 0 1-5.822-5.905v-.016H1.43v-.014a6.901 6.901 0 0 1-.03-.483v-.02a.077.077 0 0 1 .076-.073h2.33v.001a.278.278 0 0 1 0 .557H1.983c.284 2.822 2.523 5.063 5.293 5.398a.784.784 0 0 1 1.44.001 6.023 6.023 0 0 0 4.366-2.732c.057-.094.16-.314.358-.314.151 0 .281.124.275.275-.006.14-.144.318-.187.38zM9.414 5.574a.468.468 0 1 1 .936 0 .468.468 0 0 1-.936 0zM7.54 4.544zm-1.884.554a.468.468 0 1 1 .936.002.468.468 0 0 1-.936-.002zm1.208 2.705a.31.31 0 0 1 .174-.14v-.747h-.06a.427.427 0 1 1 0-.855H8.99a.427.427 0 0 1 0 .855h-.06v.746a.305.305 0 0 1 .174.141l1.952 3.478a.306.306 0 0 1-.266.455H5.176a.306.306 0 0 1-.266-.455l1.953-3.478zM1.86 5.573a6.644 6.644 0 0 1 5.39-4.107.782.782 0 0 1 .748-.564c.356 0 .654.24.75.565a6.589 6.589 0 0 1 5.371 4.08s.037.09.037.144a.278.278 0 0 1-.278.277c-.137 0-.232-.102-.279-.228a6.035 6.035 0 0 0-4.896-3.715.781.781 0 0 1-1.413-.005A6.101 6.101 0 0 0 2.366 5.8l-.004.007v.002a.277.277 0 0 1-.531-.114c0-.044.012-.085.03-.122zm10.083 3.032l-.002.001a.28.28 0 0 1 0-.557h1.365v-.734L14.52 8.33l-1.214 1.015v-.74h-1.363zM8 0a8 8 0 0 0-8 8 8 8 0 1 0 16 0 8 8 0 0 0-8-8z"/>
</svg>
